dist/svg/shop-fill.svg

<svg xmlns="http://www.w3.org/2000/svg" viewBox="0 0 24 24"><path d="M6.958 2.28a2.85 2.85 0 0 0-1.456.651c-.249.213-3.104 3.597-3.191 3.782-.062.131-.069.317-.069 1.747-.001 1.703.017 1.902.202 2.271.134.267.376.557.592.709l.198.14.013 3.96.013 3.96.109.32c.151.445.362.783.695 1.116s.673.544 1.116.694l.32.108 1.989.013 1.989.014.011-2.993c.01-2.781.016-3.003.083-3.152.091-.201.281-.402.488-.514.157-.084.191-.086 1.94-.086s1.783.002 1.94.086c.207.112.397.313.488.514.067.149.073.371.083 3.152l.011 2.993 1.989-.014 1.989-.013.32-.108c.443-.15.783-.361 1.116-.694s.544-.671.695-1.116l.109-.32.013-3.96.013-3.96.198-.14c.216-.152.458-.442.592-.709.185-.369.203-.568.203-2.271-.001-1.493-.006-1.611-.077-1.76-.114-.238-2.977-3.6-3.262-3.831a3.3 3.3 0 0 0-1.04-.534c-.224-.067-.574-.072-5.2-.079-2.728-.004-5.078.007-5.222.024M17.28 3.903c.184.103.373.304 1.15 1.22l.93 1.097-3.68.01c-2.024.006-5.336.006-7.36 0l-3.679-.01.915-1.084c.514-.609.981-1.125 1.065-1.177.332-.205.093-.197 5.439-.188l5 .009zm2.96 4.979c0 1.218-.012 1.296-.219 1.39-.161.074-.325.058-.543-.053a1.9 1.9 0 0 0-1.02-.207c-.418.03-.701.139-1.151.446-.409.278-.561.342-.807.342-.223 0-.387-.061-.7-.259-.537-.341-.93-.443-1.57-.411-.485.025-.741.106-1.235.391-.464.267-.638.324-.995.324s-.531-.057-.995-.324c-.494-.285-.75-.366-1.235-.391-.64-.032-1.033.07-1.57.411-.313.198-.477.259-.7.259-.246 0-.398-.064-.807-.342-.45-.307-.733-.416-1.151-.446a1.9 1.9 0 0 0-1.02.207c-.218.111-.382.127-.543.053-.207-.094-.219-.172-.219-1.39V7.76h16.48z"/></svg>

<svg fill="none" xmlns="http://www.w3.org/2000/svg" viewBox="0 0 24 24"><path d="M6.958 2.280 C 6.450 2.341,5.909 2.583,5.502 2.931 C 5.253 3.144,2.398 6.528,2.311 6.713 C 2.249 6.844,2.242 7.030,2.242 8.460 C 2.241 10.163,2.259 10.362,2.444 10.731 C 2.578 10.998,2.820 11.288,3.036 11.440 L 3.234 11.580 3.247 15.540 L 3.260 19.500 3.369 19.820 C 3.520 20.265,3.731 20.603,4.064 20.936 C 4.397 21.269,4.737 21.480,5.180 21.630 L 5.500 21.738 7.489 21.751 L 9.478 21.765 9.489 18.772 C 9.499 15.991,9.505 15.769,9.572 15.620 C 9.663 15.419,9.853 15.218,10.060 15.106 C 10.217 15.022,10.251 15.020,12.000 15.020 C 13.749 15.020,13.783 15.022,13.940 15.106 C 14.147 15.218,14.337 15.419,14.428 15.620 C 14.495 15.769,14.501 15.991,14.511 18.772 L 14.522 21.765 16.511 21.751 L 18.500 21.738 18.820 21.630 C 19.263 21.480,19.603 21.269,19.936 20.936 C 20.269 20.603,20.480 20.265,20.631 19.820 L 20.740 19.500 20.753 15.540 L 20.766 11.580 20.964 11.440 C 21.180 11.288,21.422 10.998,21.556 10.731 C 21.741 10.362,21.759 10.163,21.759 8.460 C 21.758 6.967,21.753 6.849,21.682 6.700 C 21.568 6.462,18.705 3.100,18.420 2.869 C 18.153 2.653,17.744 2.443,17.380 2.335 C 17.156 2.268,16.806 2.263,12.180 2.256 C 9.452 2.252,7.102 2.263,6.958 2.280 M17.280 3.903 C 17.464 4.006,17.653 4.207,18.430 5.123 L 19.360 6.220 15.680 6.230 C 13.656 6.236,10.344 6.236,8.320 6.230 L 4.641 6.220 5.556 5.136 C 6.070 4.527,6.537 4.011,6.621 3.959 C 6.953 3.754,6.714 3.762,12.060 3.771 L 17.060 3.780 17.280 3.903 M20.240 8.882 C 20.240 10.100,20.228 10.178,20.021 10.272 C 19.860 10.346,19.696 10.330,19.478 10.219 C 19.151 10.053,18.823 9.987,18.458 10.012 C 18.040 10.042,17.757 10.151,17.307 10.458 C 16.898 10.736,16.746 10.800,16.500 10.800 C 16.277 10.800,16.113 10.739,15.800 10.541 C 15.263 10.200,14.870 10.098,14.230 10.130 C 13.745 10.155,13.489 10.236,12.995 10.521 C 12.531 10.788,12.357 10.845,12.000 10.845 C 11.643 10.845,11.469 10.788,11.005 10.521 C 10.511 10.236,10.255 10.155,9.770 10.130 C 9.130 10.098,8.737 10.200,8.200 10.541 C 7.887 10.739,7.723 10.800,7.500 10.800 C 7.254 10.800,7.102 10.736,6.693 10.458 C 6.243 10.151,5.960 10.042,5.542 10.012 C 5.177 9.987,4.849 10.053,4.522 10.219 C 4.304 10.330,4.140 10.346,3.979 10.272 C 3.772 10.178,3.760 10.100,3.760 8.882 L 3.760 7.760 12.000 7.760 L 20.240 7.760 20.240 8.882 " stroke="none" fill-rule="evenodd"/></svg>
